X: 1
T: String Quartet in G Major opus 17 no 5 mvt 3
C: Franz Joseph Haydn
%%abc-version 2.0
%%abcx-abcm2ps-target-version 5.9.1 (29 Sep 2008)
%%abc-creator hum2abc beta
%%abcx-conversion-date 2021/02/14 14:38:34
%%abc-copyright Copyright (c) 1994, 2000 Center for Computer Assisted Research in the Humanities
%%abc-edited-by Frances Bennion
%%abcx-initial-encoding-date 1997/04/15
%%gracespace 0 6 6
%%humdrum-veritas 2172124941
%%humdrum-veritas-data 1993457502
%%linebreak <none>
%%barnumbers 0
L: 1/8
M: 3/4
N: Derived from op17n5-03.krn
Q: "Adagio" 1/4=69
%%staves [1 2 3 4]
V: 1
V: 2
V: 3 clef=alto
V: 4 clef=bass
K: Bb
[V:1]d3/e//d// g2 D2 [I:setbarnb2] |
[V:2]B2 z2 B,2 |
[V:3]G2 z2 B,2 |
[V:4]G,2 z2 G,2 |
[V:1]E2 D2 z2 |
[V:2]C2 B,2 z2 |
[V:3]A,2 B,2 z2 |
[V:4]^F,2 G,2 z2 |
[V:1]d3/e//d// c'2 ^F2 |
[V:2]z4 E2 |
[V:3]z4 C2 |
[V:4]z4 A,2 |
[V:1]^F2 G2 z2 |
[V:2]E2 D2 z2 |
[V:3]C2 B,2 z2 |
[V:4]A,2 B,2 z2 |
[V:1]d3/e//d// d'2 c'/b/a/g/ |
[V:2]z2 >G2 GG |
[V:3]z2 >G2 GG |
[V:4]z2 >B,,2 B,,B,, |
[V:1]g4 f/e/d/c/ |
[V:2]e4 d/c/B/A/ |
[V:3]GG GG GG |
[V:4]C,C, C,C, C,C, |
[V:1]B4 AG/^F/ |
[V:2]G4 C2 |
[V:3]GD DD DA, |
[V:4]D,D, D,D, D,D, |
[V:1]^F>G D2 z2 |
[V:2]C2 B,2 z2 |
[V:3]A,2 G,2 z2 |
[V:4]G,,4 z2 |
[V:1]D3/E//D// G2 D2 |
[V:2]z4 B,2 |
[V:3]z4 B,2 |
[V:4]z4 G,,2 |
[V:1]E2 D2 z2 |
[V:2]C2 B,2 z2 |
[V:3]A,2 B,2 z2 |
[V:4]^F,,2 G,,2 z2 |
[V:1][_A,_A]>G FE DC |
[V:2][_A,_A]>G FE DC |
[V:3]_A>G FE DC |
[V:4]_A,>G, F,E, D,C, |
[V:1]=B,g g2 zd |
[V:2]=B,[dG] [G2d2] z2 |
[V:3]=B,B, B,2 z2 |
[V:4]=B,,B,, B,,2 z2 |
[V:1]=B2 z2 f2 |
[V:2]z2 >>[g2d2] [d2g2] |
[V:3]z2 >>[D2G,2] [D2G,2] |
[V:4]z2 >>=B,2 B,2 |
[V:1]ed _a2 gd |
[V:2]z6 |
[V:3]z6 |
[V:4]z6 |
[V:1]e2 z4 |
[V:2]z2 >=B2 cd |
[V:3]z2 >=B2 cd |
[V:4]z2 >=B,2 CD |
[V:1]z6 |
[V:2]ed cB AG |
[V:3]ed cB AG |
[V:4]ED CB, A,G, |
[V:1]z2 >d2 d^c |
[V:2]^F>a a2 z2 |
[V:3]^F>[DA] [A2D2] z2 |
[V:4]^F,>F, F,2 z2 |
[V:1]=ed z4 |
[V:2]z2 >D2 DD |
[V:3]z2 >A,2 A,A, |
[V:4]z2 >^F,2 F,F, |
[V:1]z2 >d2 dd |
[V:2]D2 z4 |
[V:3]A,2 z4 |
[V:4]^F,2 z4 |
[V:1]fe z4 |
[V:2]z2 >[E2C2] [EC][EC] |
[V:3]z2 >A,2 A,A, |
[V:4]z2 >F,2 F,F, |
[V:1]z2 >e2 f3/c/ |
[V:2][E2C2] z4 |
[V:3]A,2 z4 |
[V:4]F,2 z4 |
[V:1]_d2 z4 |
[V:2]z2 >_D2 DD |
[V:3]z2 >B,2 B,B, |
[V:4]z2 >F,2 F,F, |
[V:1]_d2 cB z2 |
[V:2]_D2 z[=EB,] [EB,][B,E] |
[V:3]B,2 z_D DD |
[V:4]_G,2 zG, G,G, |
[V:1]z2 >B2 BA |
[V:2][B,2=E2] z4 |
[V:3]_D2 z4 |
[V:4]_G,2 z4 |
[V:1]_dc z4 |
[V:2]z2 >[F2C2] [FC][FC] |
[V:3]z2 >A,2 A,A, |
[V:4]z2 >F,2 F,F, |
[V:1]z6 |
[V:2][F2C2] z4 |
[V:3]A,2 z4 |
[V:4]F,2 z4 |
[V:1]f3/g//f// bd' c'/b/a/g/ |
[V:2]dd dd dd |
[V:3]FF FF FF |
[V:4]B,B, B,B, B,B, |
[V:1]f2 e2 d2 |
[V:2]cc cc dd |
[V:3]FF FF FF |
[V:4]A,A, A,A, B,B, |
[V:1]ce/g/ fe/d/ cB/A/ |
[V:2]G>e dc/B/ ED/C/ |
[V:3]EE FF F3/E/ |
[V:4]E,E, F,F, F,F, |
[V:1]A>B F2 z2 |
[V:2]C2 DD FE |
[V:3]E2 DB, DC |
[V:4]B,,2 z2 F,,2 |
[V:1]F3/G//F// Bd c/B/A/G/ |
[V:2]DD DD DD |
[V:3]B,F, F,F, F,F, |
[V:4]B,,B,, B,,B,, B,,B,, |
[V:1]F2 E2 Df/d/ |
[V:2]CC CC DB, |
[V:3]F,F, F,F, F,F, |
[V:4]A,,A,, A,,A,, B,,B,, |
[V:1]c2 g3 B |
[V:2]B,B BB BG |
[V:3]G,G, G,G, G,C |
[V:4]E,E, E,E, E,=E, |
[V:1]A2 f4 |
[V:2]FF AA AA |
[V:3]CC CC CC |
[V:4]F,F, F,F, F,F, |
[V:1]f=e e4 |
[V:2]BB BB BB |
[V:3]B,B, B,B, B,B, |
[V:4]G,G, G,G, G,G, |
[V:1]e4 d2 |
[V:2]cc cc FF |
[V:3]A,A, A,A, B,B, |
[V:4]A,A, A,A, B,B, |
[V:1]cf//e//d//c// B2 Af |
[V:2]GG/E/ DD Cz |
[V:3]EE FF Fz |
[V:4]E,E, F,F, F,z |
[V:1]f=e e4 |
[V:2]zB BB BB |
[V:3]zB, B,B, B,B, |
[V:4]zG, G,G, G,G, |
[V:1]e4 d2 |
[V:2]FF FF Fd |
[V:3]A,A, A,A, B,B, |
[V:4]A,A, A,A, B,B, |
[V:1]g4 f/e/d/c/ |
[V:2]dd cc cc |
[V:3]B,B, CC G,G, |
[V:4]E,E, E,E, E,E, |
[V:1](3f2>>b2 a/(3b/d'/^c'/ (3d'/a/b/(3f/_a/f/ |
[V:2]cc B2 zB |
[V:3]A,A, B,2 zD |
[V:4]E,E, D,2 zD, |
[V:1](3g/b/=B/(3c/e/=E/ F2 c2 |
[V:2]B>=E FB2 A |
[V:3]E>=E FF FF |
[V:4]E,>=E, F,F, F,F, |
[V:1]B2 _A3 ^F |
[V:2]BB FF FD |
[V:3]B,B, B,B, D,D, |
[V:4]B,,B,, B,,B,, B,,B,, |
[V:1]^F2 G2 ED/C/ |
[V:2]B,4 G,A, |
[V:3]E,E, E,E, E,E, |
[V:4]B,,B,, B,,B,, B,,B,, |
[V:1]C2 D2 z2 |
[V:2]A,2 B,2 z2 |
[V:3]E,2 D,2 z2 |
[V:4]B,,4 z2 |
[V:1]d3/e//d// g2 D2 |
[V:2]z4 B,2 |
[V:3]z4 B,2 |
[V:4]z4 G,2 |
[V:1]E2 D2 z2 |
[V:2]C2 B,2 z2 |
[V:3]A,2 B,2 z2 |
[V:4]^F,2 G,2 z2 |
[V:1]d3/e//d// c'2 ^F2 |
[V:2]z4 E2 |
[V:3]z4 C2 |
[V:4]z4 A,2 |
[V:1]^F2 G2 z2 |
[V:2]E2 D2 z2 |
[V:3]C2 B,2 z2 |
[V:4]A,2 B,2 z2 |
[V:1]d3/(3f//e//d// _a2 =B,2 |
[V:2]z4 _A,2 |
[V:3]z4 F,2 |
[V:4]z4 F,2 |
[V:1]=B,2 C>G c=B |
[V:2]_A,2 G,>G c=B |
[V:3]F,2 E,>G, C=B, |
[V:4]F,2 E,>G, C=B, |
[V:1]ed cB AG |
[V:2]ed cB AG |
[V:3]ED CB, A,G, |
[V:4]ED CB, A,G, |
[V:1]^F2 z3 d |
[V:2]^F>a a2 z2 |
[V:3]^F,>D D2 z2 |
[V:4]^F,>F, F,2 z2 |
[V:1]dA z/A/G/A/ ^FF |
[V:2]z6 |
[V:3]z6 |
[V:4]z6 |
[V:1]zA AB c2 |
[V:2]z6 |
[V:3]z6 |
[V:4]z6 |
[V:1]z2 >c2 dA |
[V:2]z6 |
[V:3]z6 |
[V:4]z6 |
[V:1]B2 z4 |
[V:2]z2 >D2 DD |
[V:3]z2 >B,2 B,B, |
[V:4]z2 >G,2 G,G, |
[V:1]g4 f3/g/ |
[V:2]E2 z4 |
[V:3]B,2 z4 |
[V:4]G,2 z4 |
[V:1]ee2 <z2 e |
[V:2]z6 |
[V:3]z6 |
[V:4]z6 |
[V:1]eB zB Bc |
[V:2]z6 |
[V:3]z6 |
[V:4]z6 |
[V:1]_dd zd e3/B/ |
[V:2]z6 |
[V:3]z6 |
[V:4]z6 |
[V:1]_dc z4 |
[V:2]z2 >E2 EE |
[V:3]z2 >C2 CC |
[V:4]z2 >_A,2 A,A, |
[V:1]_a4 gf |
[V:2]E2 z4 |
[V:3]C2 z4 |
[V:4]_A,2 z4 |
[V:1]=ee z4 |
[V:2]z2 >[B,2=E2] [EB,][EB,] |
[V:3]z2 >_D2 DD |
[V:4]z2 >G,2 G,G, |
[V:1]b4 _a3/=e/ |
[V:2][=E2B,2] z4 |
[V:3]_D2 z4 |
[V:4]G,2 z4 |
[V:1]f2 z4 |
[V:2]z2 >F2 FF |
[V:3]z2 >C2 CC |
[V:4]z2 >_A,2 A,A, |
[V:1]c'4 _ag |
[V:2]F2 z4 |
[V:3]C2 z4 |
[V:4]_A,2 z4 |
[V:1]^ff2 <z2 g |
[V:2]z6 |
[V:3]z6 |
[V:4]z6 |
[V:1]ed2 <z2 ^F |
[V:2]z4 zA, |
[V:3]z4 zC |
[V:4]z4 zD, |
[V:1]G3/A//G// gf ed |
[V:2]G,G GG GG |
[V:3]B,D DD B,B, |
[V:4]B,,B,, B,,B,, B,,B,, |
[V:1]d^c c4 |
[V:2]G3/A//G// BB AG |
[V:3]A,A, A,A, A,A, |
[V:4]A,,A,, A,,A,, A,,A,, |
[V:1]c3/d//c// a^f ec |
[V:2]G^F F4 |
[V:3]A,A, A,A, A,A, |
[V:4]D,D, D,D, D,D, |
[V:1]B2 =B4 |
[V:2]GG GG GG |
[V:3]G,D DD DD |
[V:4]G,G, F,F, F,F, |
[V:1]c2 ^c4 |
[V:2]GG B^c AG |
[V:3]CC G,G, G,G, |
[V:4]=E,E, _E,E, E,E, |
[V:1]d2 e2 ^f2 |
[V:2]^FF FF AA |
[V:3]A,A, A,A, EE |
[V:4]D,D, C,C, C,C, |
[V:1](3g2>>b2 ^f/(3g/^c'/d'/ (3a/b/f/(3g/b/d/ |
[V:2]DD D2 zG |
[V:3]DD D2 zB, |
[V:4]B,,B,, B,,2 zB,, |
[V:1](3e/g/=B/(3c/e/^C/ D2 A2 |
[V:2]G>^C DG ^FF |
[V:3]C>^C DD DD |
[V:4]C,>^C, D,D, D,D, |
[V:1]G2 c3 A/^F/ |
[V:2]G2 E3 C/A,/ |
[V:3]G,G, G,G, G,G, |
[V:4]G,,G,, G,,G,, G,,G,, |
[V:1]G2 E3 C/A,/ |
[V:2]B,2 C3 A,/^F/ |
[V:3]G,2 ^F,3 C |
[V:4]G,,G,, G,,G,, G,,G,, |
[V:1]A,2 G,2 z2 |]
[V:2]^F2 G2 z2 |]
[V:3]C2 B,2 z2 |]
[V:4]G,,4 z2 |]

